X:1
T: Paddy's Resource
C:
R:Jig
Q:180
K:G
M:6/8
L:1/16
G2|G2A2G2 D2B,2D2|G2B2d2 e4d2|g2B2B2 B2A2G2|c2A2A2 A4D2|G2A2G2 D2B,2D2|G2B2d2 e4e2|g2B2B2 B2A2G2|c2E2F2 G4G2|
G2A2G2 D2B,2D2|G2B2d2 e4d2|g2B2B2 B2A2G2|c2A2A2 A4D2|G2A2G2 D2B,2D2|G2B2d2 e4e2|g2B2B2 B2A2G2|c2E2F2 G4G2|
G2B2d2 G2B2d2|d2c2B2 B2A2G2|G2B2d2 e2f2g2|d2c2B2 A4G2|G2B2d2 g2f2e2|d2c2B2 A2G2F2|G2A2G2 D2B,2d2|B2G2G2 G4G2|
G2B2d2 G2B2d2|d2c2B2 B2A2G2|G2B2d2 e2f2g2|d2c2B2 A4G2|G2B2d2 g2f2e2|d2c2B2 A2G2F2|G2A2G2 D2B,2d2|B2G2G2 G4||
